X: 2
T: While shepherds watched their flocks at night (melody)
M:4/4
K:C
L:1/4
|: (E/F/) | G c BA | G (C/D/) E (E/F/) | G G G (F/E/) |
E D z (B/c/) | d G F F | F (E/D/) E (c/B/) |
A G F E | A G z c | G c E (D/C/) | C3 :|
N: Derived from above using 'split.cpp'
N: Chords removed w/search & replace

